icons/task-fill.svg

<svg viewBox="0 0 24 24" fill="currentColor" xmlns="http://www.w3.org/2000/svg"><path d="M21 3V21.0082C21 21.556 20.5551 22 20.0066 22H3.9934C3.44476 22 3 21.5447 3 21.0082V2.9918C3 2.44405 3.44495 2 3.9934 2H20C20.5523 2 21 2.44772 21 3ZM11.2929 13.1213L8.81802 10.6464L7.40381 12.0607L11.2929 15.9497L16.9497 10.2929L15.5355 8.87868L11.2929 13.1213Z"/></svg>

<svg xmlns="http://www.w3.org/2000/svg" viewBox="0 0 24 24">
    <g>
        <path fill="none" d="M0 0h24v24H0z"/>
        <path d="M21 2.992v18.016a1 1 0 0 1-.993.992H3.993A.993.993 0 0 1 3 21.008V2.992A1 1 0 0 1 3.993 2h16.014c.548 0 .993.444.993.992zm-9.707 10.13l-2.475-2.476-1.414 1.415 3.889 3.889 5.657-5.657-1.414-1.414-4.243 4.242z"/>
    </g>
</svg>
